X: 18272
T: Humours Of Ranelagh, The
R: reel
M: 4/4
K: Gmajor
|:DG~G2 BG~G2|Bdgd edBG|DF~F2 AF~F2|fedB cAFA|
DG~G2 BG~G2|Bdgd edBd|edef gedB|1 cAFA G3E:|2 cAFA G2Bd||
~g3d Bdgd|Bdgd ~g3e|~f3g ~a3g|fedB cAFA|
~g3d Bdgd|Bdgd edBd|edef gedB|cAFA G2Bd|
~g3d Bdgd|Bdgd ~g3e|~f3g ~a3g|fedB cAFA|
DG~G2 DA~A2|B/c/d gd edBd|edef gedB|cAFA G3E||

